X: 4
T: The Famous Ballymote
R: reel
M: 4/4
L: 1/8
K: Amix
cAeA ceef|gefd BcdB|cAeA ceef|gedB BA A2:||cAce a2 a/a/a|gefd BcdB|cAce a2 ga|gedB BA AB:||


Tune 390	Setting 22905

